packages/foundations/assets/icons/functional/images/communication/speech_bubble_exclamation_mark_16.svg

<svg width="16" height="16" viewBox="0 0 16 16" fill="none" xmlns="http://www.w3.org/2000/svg">
<g clip-path="url(#clip0_185_494)">
<path fill-rule="evenodd" clip-rule="evenodd" d="M12.3293 1.59998C13.5372 1.59998 14.4 2.5057 14.4 3.59885V10.0015C14.4 11.0946 13.5058 12.0003 12.3921 12.0003H5.47453C5.23921 12.0003 5.03529 12.0628 4.8941 12.2189L2.96474 14.171C2.46278 14.6707 1.59998 14.2959 1.59998 13.5932V3.59885C1.59998 2.5057 2.50984 1.59998 3.62355 1.59998H12.3293ZM12.8 3.19998H3.19998V11.68L3.78127 11.1324C4.20554 10.7256 4.75546 10.4313 5.33676 10.4H12.8V3.19998ZM7.13998 8.87452C7.13998 9.37424 7.54781 9.74899 8.01844 9.74899C8.489 9.74899 8.89683 9.37424 8.89683 8.87452C8.89683 8.40599 8.489 7.99998 8.01844 7.99998C7.54781 7.99998 7.13998 8.40599 7.13998 8.87452ZM7.19998 7.20129V3.99998H8.79998V7.20129H7.19998Z" fill="#1A1C1F"/>
</g>
<defs>
<clipPath id="clip0_185_494">
<rect width="16" height="16" fill="white"/>
</clipPath>
</defs>
</svg>

<svg xmlns="http://www.w3.org/2000/svg" width="16" height="16" fill="none"><g clip-path="url(#a)"><path fill="#1A1C1F" fill-rule="evenodd" d="M12.33 1.6c1.207 0 2.07.906 2.07 1.999v6.403A2.007 2.007 0 0 1 12.392 12H5.475c-.236 0-.44.063-.58.219l-1.93 1.952c-.502.5-1.365.125-1.365-.578V3.6c0-1.093.91-1.999 2.024-1.999zm.47 1.6H3.2v8.48l.581-.548c.425-.406.974-.7 1.556-.732H12.8zM7.14 8.875c0 .5.408.874.878.874s.879-.375.879-.874A.896.896 0 0 0 8.018 8a.896.896 0 0 0-.878.875M7.2 7.2V4h1.6v3.201z" clip-rule="evenodd"/></g><defs><clipPath id="a"><path fill="#fff" d="M0 0h16v16H0z"/></clipPath></defs></svg>
